images/screw.svg

<svg width="774" height="773" fill="none" xmlns="http://www.w3.org/2000/svg"><path d="M580.668 579.918a33.689 33.689 0 0 1 37.186-7.058l87.159 37.81 37.859-60.16-79.588-57.302a33.454 33.454 0 0 1-12.06-15.829 33.402 33.402 0 0 1-.926-19.868 33.436 33.436 0 0 1 10.534-16.88 33.504 33.504 0 0 1 18.269-7.919L774 421.957v-70.914l-93.89-10.419a33.674 33.674 0 0 1-18.189-7.848 33.601 33.601 0 0 1-10.615-16.711 33.558 33.558 0 0 1 .641-19.778 33.605 33.605 0 0 1 11.674-15.99l76.39-56.295-35.671-61.504-86.318 37.642a33.687 33.687 0 0 1-37.329-6.942 33.592 33.592 0 0 1-9.309-17.532 33.565 33.565 0 0 1 2.217-19.722l37.522-86.542-61.415-35.29-56.367 75.956a33.647 33.647 0 0 1-15.973 11.663 33.692 33.692 0 0 1-19.774.681 33.656 33.656 0 0 1-16.74-10.535 33.585 33.585 0 0 1-7.919-18.109L422.503 0h-72.857l-10.432 93.096a33.119 33.119 0 0 1-7.293 17.563 33.18 33.18 0 0 1-15.759 10.668 32.82 32.82 0 0 1-17.607.926 32.791 32.791 0 0 1-15.54-8.32c-.546-.4-1.053-.85-1.515-1.344a27.255 27.255 0 0 1-3.197-3.697l-55.526-75.115-61.078 35.289 37.354 85.534a33.571 33.571 0 0 1-7.087 37.118 33.686 33.686 0 0 1-37.166 7.077l-85.813-37.137-35.167 61 75.886 55.79c.505.504 2.187 2.017 2.861 2.521.673.504.841 1.008 1.346 1.512a32.613 32.613 0 0 1 7.571 33.273 33.115 33.115 0 0 1-10.61 15.697 33.192 33.192 0 0 1-17.49 7.325L0 349.194v72.595l93.89 10.587a33.674 33.674 0 0 1 18.189 7.848 33.601 33.601 0 0 1 10.615 16.711 33.558 33.558 0 0 1-.641 19.778 33.605 33.605 0 0 1-11.674 15.99l-76.39 56.295 35.671 61.504 86.318-37.642a33.687 33.687 0 0 1 37.329 6.942 33.592 33.592 0 0 1 9.309 17.532 33.565 33.565 0 0 1-2.217 19.722l-37.522 86.542 61.415 35.289 56.367-75.955a33.536 33.536 0 0 1 11.842-9.999 33.59 33.59 0 0 1 15.08-3.613 32.528 32.528 0 0 1 8.918 1.176 33.447 33.447 0 0 1 16.744 10.564 33.371 33.371 0 0 1 7.822 18.172L351.497 773h70.838l10.6-93.768a33.591 33.591 0 0 1 7.859-18.167 33.684 33.684 0 0 1 52.547 1.698l56.367 76.292 61.584-35.625-37.691-86.206a33.699 33.699 0 0 1-2.218-19.74 33.724 33.724 0 0 1 9.285-17.566ZM387 604.957a218.944 218.944 0 0 1-121.525-36.817 218.524 218.524 0 0 1-80.564-98.04 218.204 218.204 0 0 1-12.447-126.219 218.372 218.372 0 0 1 59.864-111.853 218.823 218.823 0 0 1 111.998-59.787 219 219 0 0 1 126.382 12.432 218.674 218.674 0 0 1 98.167 80.459A218.258 218.258 0 0 1 605.739 386.5c-.067 57.918-23.134 113.444-64.141 154.398-41.007 40.955-96.605 63.992-154.598 64.059Z" fill="#fff"/></svg>

<svg width="774" height="773" viewBox="0 0 774 773" fill="none" xmlns="http://www.w3.org/2000/svg">
<path d="M580.668 579.918C585.443 575.153 591.542 571.932 598.173 570.673C604.805 569.414 611.662 570.176 617.854 572.86L705.013 610.67L742.872 550.51L663.284 493.208C657.75 489.275 653.544 483.755 651.224 477.379C648.905 471.004 648.582 464.074 650.298 457.511C652.013 450.948 655.688 445.061 660.832 440.631C665.976 436.202 672.348 433.44 679.101 432.712L774 421.957V351.043L680.11 340.624C673.396 339.89 667.058 337.156 661.921 332.776C656.783 328.396 653.085 322.573 651.306 316.065C649.527 309.558 649.75 302.666 651.947 296.287C654.143 289.907 658.211 284.336 663.621 280.297L740.011 224.002L704.34 162.498L618.022 200.14C611.823 202.87 604.944 203.668 598.284 202.429C591.624 201.191 585.493 197.974 580.693 193.198C575.894 188.423 572.649 182.313 571.384 175.666C570.118 169.019 570.891 162.145 573.601 155.944L611.123 69.402L549.708 34.1128L493.341 110.068C489.307 115.467 483.742 119.53 477.368 121.731C470.994 123.932 464.104 124.169 457.594 122.412C451.083 120.655 445.251 116.985 440.854 111.877C436.457 106.77 433.698 100.461 432.935 93.7683L422.503 0H349.646L339.214 93.0961C338.553 99.5362 336.017 105.642 331.921 110.659C327.824 115.676 322.346 119.385 316.162 121.327C310.488 123.236 304.398 123.556 298.555 122.253C292.711 120.949 287.337 118.072 283.015 113.933C282.469 113.533 281.962 113.083 281.5 112.589C280.326 111.455 279.256 110.218 278.303 108.892L222.777 33.7767L161.699 69.0659L199.053 154.6C201.733 160.784 202.491 167.629 201.227 174.248C199.964 180.867 196.737 186.954 191.966 191.718C187.196 196.483 181.101 199.705 174.473 200.967C167.846 202.229 160.992 201.473 154.8 198.795L68.987 161.658L33.8204 222.658L109.706 278.448C110.211 278.952 111.893 280.465 112.567 280.969C113.24 281.473 113.408 281.977 113.913 282.481C118.124 286.79 121.06 292.179 122.397 298.051C123.733 303.923 123.417 310.05 121.484 315.754C119.553 321.906 115.865 327.362 110.874 331.451C105.882 335.541 99.8039 338.086 93.3848 338.776L0 349.194V421.789L93.8896 432.376C100.604 433.11 106.942 435.844 112.079 440.224C117.217 444.604 120.915 450.427 122.694 456.935C124.473 463.442 124.25 470.334 122.053 476.713C119.857 483.093 115.789 488.664 110.379 492.703L33.9887 548.998L69.66 610.502L155.978 572.86C162.177 570.13 169.056 569.332 175.716 570.571C182.376 571.809 188.507 575.026 193.307 579.802C198.106 584.577 201.351 590.687 202.616 597.334C203.882 603.981 203.109 610.855 200.399 617.056L162.877 703.598L224.292 738.887L280.659 662.932C283.771 658.721 287.826 655.296 292.501 652.933C297.176 650.569 302.341 649.332 307.581 649.32C310.594 649.297 313.595 649.693 316.499 650.496C323.02 652.248 328.858 655.931 333.243 661.06C337.628 666.189 340.355 672.525 341.065 679.232L351.497 773H422.335L432.935 679.232C433.67 672.526 436.408 666.196 440.794 661.065C445.179 655.935 451.009 652.241 457.526 650.465C464.042 648.688 470.943 648.911 477.33 651.105C483.718 653.298 489.296 657.36 493.341 662.763L549.708 739.055L611.292 703.43L573.601 617.224C570.895 611.015 570.122 604.137 571.383 597.484C572.643 590.831 575.878 584.71 580.668 579.918V579.918ZM387 604.957C343.737 604.957 301.447 592.144 265.475 568.14C229.504 544.136 201.467 510.017 184.911 470.1C168.356 430.182 164.024 386.258 172.464 343.881C180.904 301.505 201.737 262.58 232.328 232.028C262.919 201.476 301.895 180.67 344.326 172.241C386.757 163.812 430.738 168.138 470.708 184.673C510.677 201.207 544.84 229.207 568.875 265.132C592.91 301.057 605.739 343.293 605.739 386.5C605.672 444.418 582.605 499.944 541.598 540.898C500.591 581.853 444.993 604.89 387 604.957V604.957Z" fill="white"/>
</svg>
